;FLAVOR:Marlin
;TIME:66
;Filament used: 0.0617825m
;Layer height: 0.2
;MINX:86.214
;MINY:97.617
;MINZ:0.37
;MAXX:133.877
;MAXY:122.473
;MAXZ:0.37
;Generated with Cura_SteamEngine 5.2.1
M82 ;absolute extrusion mode
; Ender 3 Custom Start G-code
G92 E0 ; Reset Extruder
G28 ; Home all axes
M104 S175 ; Start heating up the nozzle most of the way
M190 S60 ; Start heating the bed, wait until target temperature reached
M109 S200 ; Finish heating the nozzle
G1 Z2.0 F3000 ; Move Z Axis up little to prevent scratching of Heat Bed
G1 X0.1 Y20 Z0.3 F5000.0 ; Move to start position
G1 X0.1 Y200.0 Z0.3 F1500.0 E15 ; Draw the first line
G1 X0.4 Y200.0 Z0.3 F5000.0 ; Move to side a little
G1 X0.4 Y20 Z0.3 F1500.0 E30 ; Draw the second line
G92 E0 ; Reset Extruder
G1 Z2.0 F3000 ; Move Z Axis up little to prevent scratching of Heat Bed
G1 X5 Y20 Z0.3 F5000.0 ; Move over to prevent blob squish
G92 E0
G92 E0
G1 F1500 E-6.5
;LAYER_COUNT:1
;LAYER:0
M107
;MESH:Untitled (1).stl
G0 F6000 X110.113 Y120.881 Z0.37
;TYPE:WALL-INNER
G1 F1500 E0
G1 F1200 X110.484 Y120.936 E0.02308
G1 X110.851 Y120.976 E0.04579
G1 X111.224 Y121.001 E0.0688
G1 X111.637 Y121.009 E0.09421
G1 X111.967 Y121.002 E0.11452
G1 X112.499 Y120.962 E0.14735
G1 X132.953 Y99.196 E1.98519
G1 X127.479 Y99.196 E2.32202
G1 X126.49 Y99.196 E2.38287
G1 X113.978 Y111.863 E3.47841
G1 X113.682 Y112.374 E3.51474
G1 X113.211 Y112.918 E3.55902
G1 X112.647 Y113.361 E3.60315
G1 X112.002 Y113.693 E3.64779
G1 X111.308 Y113.898 E3.69231
G1 X110.585 Y113.966 E3.737
G1 X109.869 Y113.898 E3.78125
G1 X109.174 Y113.693 E3.82584
G1 X108.532 Y113.361 E3.87031
G1 X107.963 Y112.915 E3.91479
G1 X107.492 Y112.369 E3.95916
G1 X107.191 Y111.848 E3.99619
G1 X95.923 Y99.583 E5.02101
G1 X87.32 Y98.2 E5.55716
G1 X108.454 Y120.434 E7.44467
G1 X109.024 Y120.62 E7.48156
G1 X109.385 Y120.723 E7.50466
G1 X109.747 Y120.81 E7.52757
G1 X110.113 Y120.881 E7.55051
G0 F6000 X110.131 Y120.782
G0 X111.206 Y120.899
G0 X111.206 Y121.401
;TYPE:WALL-OUTER
G1 F1200 X111.645 Y121.409 E7.57753
G1 X111.983 Y121.402 E7.59833
G1 X112.391 Y121.376 E7.62348
G1 X112.689 Y121.344 E7.64193
G1 X133.877 Y98.796 E9.54576
G1 X127.479 Y98.796 E9.93944
G1 X126.323 Y98.796 E10.01057
G1 X113.657 Y111.619 E11.11959
G1 X113.363 Y112.128 E11.15576
G1 X112.944 Y112.615 E11.19529
G1 X112.441 Y113.014 E11.2348
G1 X111.832 Y113.326 E11.2769
G1 X111.215 Y113.505 E11.31643
G1 X110.569 Y113.563 E11.35634
G1 X109.962 Y113.505 E11.39386
G1 X109.31 Y113.312 E11.4357
G1 X108.734 Y113.011 E11.47569
G1 X108.256 Y112.636 E11.51307
G1 X107.809 Y112.119 E11.55513
G1 X107.515 Y111.61 E11.59129
G1 X96.124 Y99.21 E12.62735
G1 X86.214 Y97.617 E13.24495
G1 X108.211 Y120.759 E15.20955
G1 X108.536 Y120.882 E15.23093
G1 X108.907 Y121.003 E15.25494
G1 X109.283 Y121.11 E15.27899
G1 X109.662 Y121.201 E15.30298
G1 X110.045 Y121.275 E15.32698
G1 X110.432 Y121.333 E15.35106
G1 X110.816 Y121.375 E15.37483
G1 X111.206 Y121.401 E15.39888
G0 F6000 X111.238 Y120.641
;TYPE:SKIN
G1 F1200 X111.565 Y120.648 E15.419
G1 X111.955 Y120.642 E15.443
G1 X112.328 Y120.615 E15.46601
G1 X132.118 Y99.556 E17.24418
G1 X126.642 Y99.556 E17.58112
G1 X114.265 Y112.086 E18.66483
G1 X114.002 Y112.543 E18.69727
G1 X113.479 Y113.162 E18.74713
G1 X112.866 Y113.648 E18.79527
G1 X112.15 Y114.022 E18.84497
G1 X111.365 Y114.255 E18.89536
G1 X110.628 Y114.323 E18.9409
G1 X109.815 Y114.255 E18.9911
G1 X109.019 Y114.02 E19.04217
G1 X108.313 Y113.648 E19.09127
G1 X107.725 Y113.184 E19.13736
G1 X107.207 Y112.59 E19.18585
G1 X106.902 Y112.066 E19.22316
G1 X95.743 Y99.921 E20.238
G1 X88.318 Y98.727 E20.70074
G1 X108.655 Y120.12 E22.51696
G1 X109.141 Y120.281 E22.54846
G1 X109.475 Y120.373 E22.56978
G1 X109.823 Y120.457 E22.59181
G1 X110.174 Y120.525 E22.61381
G1 X110.529 Y120.579 E22.6359
G1 X110.882 Y120.617 E22.65775
G1 X111.238 Y120.641 E22.6797
G0 F6000 X111.21 Y120.899
G0 X109.269 Y120.585
G0 X109.394 Y120.142
G1 F1200 X100.436 Y111.184 E23.45921
G1 F1500 E16.95921
G0 F6000 X100.102 Y111.5
G0 X87.838 Y98.474
G0 X95.841 Y99.735
G0 X103.081 Y107.523
G1 F1500 E23.45921
G0 F6000 X102.742 Y107.833
G1 F1200 X94.895 Y99.986 E24.14205
G0 F6000 X94.221 Y99.878
G1 F1200 X107.024 Y112.681 E25.25614
G0 F6000 X107.361 Y112.342
G0 X108.259 Y113.275
G0 X107.977 Y113.634
G1 F1200 X113.46 Y119.117 E25.73326
G0 F6000 X113.735 Y118.826
G1 F1200 X109.19 Y114.281 E26.12876
G0 F6000 X109.939 Y114.465
G1 F1200 X114.008 Y118.534 E26.48284
G0 F6000 X114.283 Y118.243
G1 F1200 X110.561 Y114.52 E26.80676
G0 F6000 X111.085 Y114.479
G1 F1200 X114.556 Y117.951 E27.10885
G0 F6000 X114.831 Y117.659
G1 F1200 X111.575 Y114.404 E27.39214
G0 F6000 X112.012 Y114.274
G1 F1200 X115.104 Y117.367 E27.66124
G0 F6000 X115.379 Y117.076
G1 F1200 X112.413 Y114.11 E27.91934
G0 F6000 X112.786 Y113.917
G1 F1200 X115.652 Y116.784 E28.16878
G0 F6000 X115.927 Y116.493
G1 F1200 X113.128 Y113.694 E28.41234
G0 F6000 X113.443 Y113.443
G1 F1200 X116.201 Y116.201 E28.65234
G0 F6000 X116.475 Y115.909
G1 F1200 X113.733 Y113.168 E28.8909
G0 F6000 X113.993 Y112.862
G1 F1200 X116.749 Y115.618 E29.13072
G0 F6000 X117.023 Y115.326
G1 F1200 X114.234 Y112.537 E29.37341
G0 F6000 X114.447 Y112.184
G1 F1200 X117.297 Y115.034 E29.62142
G0 F6000 X117.571 Y114.742
G1 F1200 X114.728 Y111.9 E29.86877
G0 F6000 X115.009 Y111.615
G1 F1200 X117.845 Y114.451 E30.11555
G0 F6000 X118.12 Y114.16
G1 F1200 X115.29 Y111.331 E30.36177
G0 F6000 X115.571 Y111.046
G1 F1200 X118.393 Y113.868 E30.60733
G0 F6000 X118.668 Y113.576
G1 F1200 X115.853 Y110.761 E30.85229
G0 F6000 X116.133 Y110.476
G1 F1200 X118.941 Y113.284 E31.09664
G0 F6000 X119.216 Y112.993
G1 F1200 X116.415 Y110.192 E31.34038
G0 F6000 X116.696 Y109.908
G1 F1200 X119.489 Y112.701 E31.58342
G0 F6000 X119.764 Y112.41
G1 F1200 X116.977 Y109.623 E31.82594
G0 F6000 X117.258 Y109.339
G1 F1200 X120.038 Y112.118 E32.06781
G0 F6000 X120.312 Y111.826
G1 F1200 X117.539 Y109.054 E32.30906
G0 F6000 X117.82 Y108.769
G1 F1200 X120.586 Y111.535 E32.54976
G0 F6000 X120.86 Y111.243
G1 F1200 X118.101 Y108.485 E32.7898
G0 F6000 X118.383 Y108.2
G1 F1200 X121.134 Y110.952 E33.02923
G0 F6000 X121.408 Y110.66
G1 F1200 X118.663 Y107.915 E33.26809
G0 F6000 X118.945 Y107.631
G1 F1200 X121.682 Y110.368 E33.50626
G0 F6000 X121.956 Y110.077
G1 F1200 X119.225 Y107.346 E33.74391
G0 F6000 X119.507 Y107.062
G1 F1200 X122.23 Y109.785 E33.98086
G0 F6000 X122.504 Y109.494
G1 F1200 X119.788 Y106.777 E34.21725
G0 F6000 X120.069 Y106.493
G1 F1200 X122.778 Y109.202 E34.45298
G0 F6000 X123.052 Y108.91
G1 F1200 X120.35 Y106.208 E34.6881
G0 F6000 X120.631 Y105.923
G1 F1200 X123.326 Y108.618 E34.92262
G0 F6000 X123.6 Y108.327
G1 F1200 X120.913 Y105.639 E35.15648
G0 F6000 X121.193 Y105.354
G1 F1200 X123.874 Y108.035 E35.38977
G0 F6000 X124.148 Y107.743
G1 F1200 X121.475 Y105.07 E35.62237
G0 F6000 X121.756 Y104.785
G1 F1200 X124.423 Y107.452 E35.85445
G0 F6000 X124.696 Y107.16
G1 F1200 X122.037 Y104.501 E36.08583
G0 F6000 X122.318 Y104.216
G1 F1200 X124.971 Y106.869 E36.31669
G0 F6000 X125.244 Y106.577
G1 F1200 X122.599 Y103.931 E36.5469
G0 F6000 X122.88 Y103.647
G1 F1200 X125.519 Y106.285 E36.7765
G0 F6000 X125.792 Y105.993
G1 F1200 X123.161 Y103.362 E37.00544
G0 F6000 X123.442 Y103.077
G1 F1200 X126.067 Y105.702 E37.23387
G0 F6000 X126.341 Y105.411
G1 F1200 X123.723 Y102.793 E37.46168
G0 F6000 X124.004 Y102.508
G1 F1200 X126.615 Y105.119 E37.68889
G0 F6000 X126.889 Y104.827
G1 F1200 X124.286 Y102.224 E37.91539
G0 F6000 X124.566 Y101.939
G1 F1200 X127.163 Y104.535 E38.14134
G0 F6000 X127.437 Y104.244
G1 F1200 X124.848 Y101.655 E38.36663
G0 F6000 X125.129 Y101.37
G1 F1200 X127.711 Y103.952 E38.59131
G0 F6000 X127.985 Y103.661
G1 F1200 X125.41 Y101.085 E38.81542
G0 F6000 X125.691 Y100.801
G1 F1200 X128.259 Y103.369 E39.03889
G0 F6000 X128.533 Y103.077
G1 F1200 X125.972 Y100.516 E39.26174
G0 F6000 X126.253 Y100.232
G1 F1200 X128.807 Y102.786 E39.48399
G0 F6000 X129.081 Y102.494
G1 F1200 X126.534 Y99.947 E39.70562
G0 F6000 X126.908 Y99.755
G1 F1200 X129.355 Y102.203 E39.9186
G0 F6000 X129.629 Y101.911
G1 F1200 X127.474 Y99.755 E40.10617
G0 F6000 X128.04 Y99.755
G1 F1200 X129.904 Y101.619 E40.26837
G0 F6000 X130.178 Y101.328
G1 F1200 X128.605 Y99.755 E40.40525
G0 F6000 X129.171 Y99.755
G1 F1200 X130.452 Y101.036 E40.51672
G0 F6000 X130.726 Y100.745
G1 F1200 X129.737 Y99.755 E40.60282
G0 F6000 X130.302 Y99.755
G1 F1200 X131 Y100.453 E40.66356
G0 F6000 X131.274 Y100.161
G1 F1200 X130.868 Y99.755 E40.69889
G0 F6000 X131.434 Y99.755
G1 F1200 X131.548 Y99.869 E40.70881
G0 F6000 X131.884 Y100.186
G0 X113.522 Y119.726
G0 X113.186 Y119.409
G1 F1200 X93.547 Y99.769 E42.41781
G0 F6000 X92.873 Y99.661
G1 F1200 X112.912 Y119.701 E44.16161
G0 F6000 X112.638 Y119.992
G1 F1200 X92.199 Y99.553 E45.94018
G0 F6000 X91.525 Y99.445
G1 F1200 X112.364 Y120.284 E47.75356
G0 F6000 X111.954 Y120.439
G1 F1200 X90.851 Y99.336 E49.5899
G0 F6000 X90.177 Y99.228
G1 F1200 X111.392 Y120.443 E51.436
G0 F6000 X110.788 Y120.404
G1 F1200 X89.503 Y99.12 E53.28814
G0 F6000 X89.551 Y99.733
G1 F1200 X110.129 Y120.311 E55.0788
G1 F1500 E48.5788
G0 F6000 X110.044 Y120.765
G0 X108.529 Y120.279
G0 X87.838 Y98.474
G0 X95.841 Y99.735
G0 X96.685 Y100.562
G1 F1500 E55.0788
G0 F6000 X96.346 Y100.872
G1 F1200 X95.569 Y100.095 E55.14642
G1 F1500 E48.64642
G0 F6000 X95.642 Y99.641
G0 X96.962 Y100.434
G0 X108.078 Y112.798
G0 X108.622 Y113.226
G0 X109.237 Y113.544
G0 X109.9 Y113.739
G0 X110.589 Y113.805
G0 X111.277 Y113.739
G0 X111.94 Y113.544
G0 X112.556 Y113.226
G0 X113.1 Y112.798
G0 X126.559 Y99.36
G0 X132.526 Y99.381
G0 X119.07 Y113.732
G0 X119.389 Y113.925
G0 X120.166 Y114.654
G0 X124.426 Y117.733
G0 X127.788 Y121.964
;TYPE:WALL-INNER
G1 F1500 E55.14642
G1 F1200 X128.586 Y122.069 E55.19594
G1 X129.387 Y121.962 E55.24566
G1 X130.125 Y121.655 E55.29485
G1 X130.767 Y121.161 E55.34469
G1 X131.255 Y120.521 E55.39421
G1 X131.559 Y119.782 E55.44338
G1 X131.611 Y119.379 E55.46838
G1 X131.664 Y118.98 E55.49315
G1 X131.557 Y118.182 E55.54269
G1 X131.25 Y117.446 E55.59176
G1 X130.75 Y116.801 E55.64198
G1 X130.114 Y116.316 E55.69119
G1 X129.375 Y116.011 E55.74038
G1 X128.575 Y115.906 E55.79003
G1 X127.778 Y116.013 E55.83951
G1 X127.04 Y116.32 E55.88869
G1 X126.397 Y116.815 E55.93862
G1 X125.909 Y117.454 E55.9881
G1 X125.604 Y118.192 E56.03723
G1 X125.5 Y118.995 E56.08705
G1 X125.607 Y119.792 E56.13653
G1 X125.914 Y120.53 E56.18572
G1 X126.405 Y121.169 E56.2353
G1 X127.048 Y121.659 E56.28505
G1 X127.788 Y121.964 E56.33429
G0 F6000 X127.684 Y122.354
;TYPE:WALL-OUTER
G1 F1200 X128.588 Y122.473 E56.3904
G1 X129.492 Y122.352 E56.44652
G1 X130.327 Y122.004 E56.50218
G1 X131.053 Y121.446 E56.55852
G1 X131.605 Y120.722 E56.61454
G1 X131.949 Y119.886 E56.67017
G1 X132.008 Y119.431 E56.6984
G1 X132.068 Y118.98 E56.72639
G1 X131.947 Y118.076 E56.78251
G1 X131.599 Y117.243 E56.83806
G1 X131.036 Y116.514 E56.89474
G1 X130.316 Y115.965 E56.95045
G1 X129.48 Y115.62 E57.0061
G1 X128.575 Y115.502 E57.06226
G1 X127.672 Y115.623 E57.11832
G1 X126.838 Y115.971 E57.17392
G1 X126.111 Y116.529 E57.23031
G1 X125.559 Y117.253 E57.28633
G1 X125.214 Y118.088 E57.34192
G1 X125.096 Y118.995 E57.3982
G1 X125.217 Y119.897 E57.4542
G1 X125.565 Y120.732 E57.50986
G1 X126.12 Y121.455 E57.56595
G1 X126.848 Y122.009 E57.62224
G1 X127.684 Y122.354 E57.67788
G0 F6000 X127.879 Y121.612
;TYPE:SKIN
G1 F1200 X128.584 Y121.704 E57.72163
G1 X129.294 Y121.61 E57.7657
G1 X129.939 Y121.341 E57.8087
G1 X130.511 Y120.902 E57.85307
G1 X130.94 Y120.337 E57.89672
G1 X131.207 Y119.69 E57.93979
G1 X131.253 Y119.331 E57.96206
G1 X131.3 Y118.98 E57.98385
G1 X131.205 Y118.272 E58.0278
G1 X130.937 Y117.631 E58.07055
G1 X130.495 Y117.062 E58.11488
G1 X129.929 Y116.63 E58.1587
G1 X129.282 Y116.363 E58.20176
G1 X128.576 Y116.271 E58.24557
G1 X127.87 Y116.364 E58.28939
G1 X127.226 Y116.634 E58.33236
G1 X126.653 Y117.074 E58.37681
G1 X126.223 Y117.639 E58.4205
G1 X125.957 Y118.283 E58.46337
G1 X125.864 Y118.995 E58.50755
G1 X125.958 Y119.699 E58.55126
G1 X126.228 Y120.345 E58.59434
G1 X126.66 Y120.91 E58.6381
G1 X127.232 Y121.345 E58.68232
G1 X127.879 Y121.612 E58.72538
G0 F6000 X127.434 Y121.212
G1 F1200 X126.356 Y120.133 E58.81923
G0 F6000 X126.108 Y119.32
G1 F1200 X128.245 Y121.457 E59.00519
G0 F6000 X128.823 Y121.469
G1 F1200 X126.097 Y118.743 E59.2424
G0 F6000 X126.181 Y118.261
G1 F1200 X129.306 Y121.386 E59.51434
G0 F6000 X129.705 Y121.22
G1 F1200 X126.345 Y117.86 E59.80672
G0 F6000 X126.566 Y117.515
G1 F1200 X130.051 Y121 E60.10998
G0 F6000 X130.372 Y120.755
G1 F1200 X126.816 Y117.2 E60.41937
G0 F6000 X127.136 Y116.954
G1 F1200 X130.616 Y120.433 E60.72215
G0 F6000 X130.829 Y120.081
G1 F1200 X127.488 Y116.74 E61.01288
G0 F6000 X127.887 Y116.573
G1 F1200 X130.994 Y119.68 E61.28324
G0 F6000 X131.07 Y119.19
G1 F1200 X128.378 Y116.498 E61.5175
G0 F6000 X128.969 Y116.524
G1 F1200 X131.046 Y118.601 E61.69824
G0 F6000 X130.775 Y117.765
G1 F1200 X129.807 Y116.796 E61.78251
;TIME_ELAPSED:66.980208
G1 F1500 E55.28251
G91 ;Relative positioning
G1 E-2 F2700 ;Retract a bit
G1 E-2 Z0.2 F2400 ;Retract and raise Z
G1 X5 Y5 F3000 ;Wipe out
G1 Z10 ;Raise Z more
G90 ;Absolute positioning

G1 X0 Y220 ;Present print
M106 S0 ;Turn-off fan
M104 S0 ;Turn-off hotend
M140 S0 ;Turn-off bed

M84 X Y E ;Disable all steppers but Z

M82 ;absolute extrusion mode
;End of Gcode
;SETTING_3 {"global_quality": "[general]\\nversion = 4\\nname = Standard Quality
;SETTING_3  #2\\ndefinition = creality_ender3pro\\n\\n[metadata]\\ntype = qualit
;SETTING_3 y_changes\\nquality_type = standard\\nsetting_version = 20\\n\\n[valu
;SETTING_3 es]\\nadhesion_type = none\\nlayer_height_0 = 0.37\\n\\n", "extruder_
;SETTING_3 quality": ["[general]\\nversion = 4\\nname = Standard Quality #2\\nde
;SETTING_3 finition = creality_base\\n\\n[metadata]\\ntype = quality_changes\\nq
;SETTING_3 uality_type = standard\\nsetting_version = 20\\nposition = 0\\n\\n[va
;SETTING_3 lues]\\n\\n"]}
